X:1
T: Mutual Love
N:
C:
S:aka The Flight
A:
O:
R:
M:6/8
K:C
I:speed 180
%W: A1
% voice 1 (1 lines, 41 notes)
K:C
M:6/8
L:1/16
G2 |c2 e2 d2 c2 e2 d2 c4 G2 G4 F2 E2 G2 c2 A2 B2 c2 d2 f2 e2 d4 G2 |c2 e2 d2 c2 e2 d2 c4 G2 G4 F2 E2 G2 c2 G2 c2 B2 c6c4 G2 |
%W: A2
% voice 1 (1 lines, 40 notes)
c2 e2 d2 c2 e2 d2 c4 G2 G4 F2 E2 G2 c2 A2 B2 c2 d2 f2 e2 d4 G2 |c2 e2 d2 c2 e2 d2 c4 G2 G4 F2 E2 G2 c2 G2 c2 B2 c6c4 g2 |
%W: B1
% voice 1 (1 lines, 38 notes)
g4 e2 c2 e2 g2 a4 f2 d2 e2 f2 g4 c2 B4 c2 d2 B2 G2 G4 g2 |g4 e2 c2 e2 g2 a4 f2 d2 e2 f2 g2 e2 c2 G2 c2 B2 c6 C4 g2 |
%W: B2
% voice 1 (1 lines, 37 notes)
g4 e2 c2 e2 g2 a4 f2 d2 e2 f2 g4 c2 B4 c2 d2 B2 G2 G4 g2 |g4 e2 c2 e2 g2 a4 f2 d2 e2 f2 g2 e2 c2 G2 c2 B2 c6 C4 ||
